img/dash-spacing-dont2.svg

<svg width="180" height="111" xmlns="http://www.w3.org/2000/svg"><g fill="none" fill-rule="evenodd"><path d="M2.404 107V94.994H7.75c2.088 0 3.366 1.26 3.366 3.06 0 1.512-1.008 2.52-2.106 2.754 1.278.198 2.34 1.512 2.34 2.952 0 1.926-1.278 3.24-3.474 3.24H2.404zm1.494-6.804h3.6c1.35 0 2.07-.828 2.07-1.926 0-1.08-.72-1.944-2.07-1.944h-3.6v3.87zm0 5.472H7.57c1.404 0 2.232-.792 2.232-2.07 0-1.098-.756-2.07-2.232-2.07H3.898v4.14zm13.572 1.548c-2.646 0-4.302-2.052-4.302-4.572s1.656-4.554 4.302-4.554 4.302 2.034 4.302 4.554c0 2.52-1.656 4.572-4.302 4.572zm0-1.206c1.854 0 2.88-1.584 2.88-3.366 0-1.764-1.026-3.348-2.88-3.348-1.854 0-2.898 1.584-2.898 3.348 0 1.782 1.044 3.366 2.898 3.366zm12.798.99v-1.296c-.648.882-1.71 1.512-2.934 1.512-2.268 0-3.87-1.728-3.87-4.554 0-2.772 1.584-4.572 3.87-4.572 1.17 0 2.232.576 2.934 1.53v-4.626h1.35V107h-1.35zm0-2.358V100.7c-.486-.756-1.53-1.404-2.61-1.404-1.746 0-2.79 1.44-2.79 3.366 0 1.926 1.044 3.348 2.79 3.348 1.08 0 2.124-.612 2.61-1.368zm3.78 4.536l-.216 1.224c.252.072.702.126.99.126 1.152-.018 2.034-.504 2.556-1.764l4.356-10.458h-1.476l-2.88 7.128-2.898-7.128h-1.458l3.636 8.784-.576 1.314c-.306.72-.702.918-1.296.918a2.07 2.07 0 01-.738-.144zM50.806 107H52.3V96.326h3.816v-1.332h-9.108v1.332h3.798V107zm6.732-4.356c0-2.52 1.8-4.554 4.284-4.554 2.628 0 4.176 2.052 4.176 4.662v.342H58.96c.108 1.638 1.26 3.006 3.132 3.006.99 0 1.998-.396 2.682-1.098l.648.882c-.864.864-2.034 1.332-3.456 1.332-2.574 0-4.428-1.854-4.428-4.572zm4.266-3.438c-1.854 0-2.772 1.566-2.844 2.898h5.706c-.018-1.296-.882-2.898-2.862-2.898zM73.81 107h1.566l-3.348-4.464 3.15-4.23h-1.566l-2.412 3.312-2.412-3.312h-1.566l3.15 4.23-3.33 4.464h1.548l2.61-3.564L73.81 107zm5.31.216c.792 0 1.278-.234 1.62-.558l-.396-1.008c-.18.198-.54.36-.918.36-.594 0-.882-.468-.882-1.116v-5.4h1.764v-1.188h-1.764V95.93h-1.35v2.376h-1.44v1.188h1.44v5.688c0 1.296.648 2.034 1.926 2.034zM1.416 3.064h6.816V23h2.432V3.064h6.752V.856h-16v2.208zM20.136 23h2.4V7h-2.4v16zm0-19.616h2.4V.6h-2.4v2.784zM35.432 9.08V7h-5.088V2.104h-2.368V7h-2.272v2.08h2.272v8.416c0 4.608 1.12 5.856 4.416 5.856 1.12 0 3.264-.352 3.264-.352l-.16-1.984s-1.952.192-2.848.192c-2.08 0-2.304-.992-2.304-4.48V9.08h5.088zM38.568 23h2.4V.024h-2.4V23zm13.12-1.792c2.4 0 5.888-.288 5.888-.288l.064 1.888s-3.648.512-6.24.512c-4.768 0-6.336-2.784-6.336-8.224 0-6.08 2.624-8.416 6.688-8.416 4.256 0 6.432 2.24 6.432 7.488l-.128 1.824h-10.56c0 3.424 1.056 5.216 4.192 5.216zm-4.224-7.136h8.32c0-3.968-1.216-5.376-4.032-5.376-2.72 0-4.256 1.504-4.288 5.376z" fill="#071D49"/><path d="M1 57h29" stroke="#C8102E" stroke-width="2" stroke-linecap="square"/><path fill="#D0021B" opacity=".05" d="M0 26h134v30H0zm0 32h134v30H0z"/><path d="M144.632 77.432c.656.96 1.984 1.76 3.792 1.76 2.352 0 3.776-1.296 3.776-3.072 0-1.712-1.488-2.544-2.464-2.624 1.008-.176 2.304-.944 2.304-2.48 0-1.808-1.568-2.848-3.616-2.848-1.648 0-2.88.72-3.648 1.648l.736.832c.784-.848 1.648-1.296 2.816-1.296 1.296 0 2.384.64 2.384 1.824 0 1.232-1.136 1.76-2.48 1.76-.432 0-.928 0-1.104-.016v1.216c.16-.016.656-.016 1.104-.016 1.568 0 2.656.56 2.656 1.888 0 1.232-.944 2-2.496 2-1.264 0-2.352-.576-2.976-1.408l-.784.832zm9.264-3.76c0-2.608 1.152-5.504 4.08-5.504 2.912 0 4.08 2.896 4.08 5.504 0 2.592-1.168 5.52-4.08 5.52-2.928 0-4.08-2.928-4.08-5.52zm6.8 0c0-2.128-.688-4.32-2.72-4.32s-2.72 2.192-2.72 4.32.688 4.336 2.72 4.336 2.72-2.208 2.72-4.336zm4.576 8.272h-1.2V71.272h1.2v1.152a3.23 3.23 0 012.608-1.344c2.032 0 3.44 1.536 3.44 4.048 0 2.496-1.408 4.064-3.44 4.064-1.056 0-1.984-.496-2.608-1.36v4.112zm4.784-6.816c0-1.712-.928-2.976-2.48-2.976-.944 0-1.888.56-2.304 1.232v3.488c.416.672 1.36 1.248 2.304 1.248 1.552 0 2.48-1.28 2.48-2.992zM178.264 79h1.392l-2.976-3.968 2.8-3.76h-1.392l-2.144 2.944-2.144-2.944h-1.392l2.8 3.76-2.96 3.968h1.376l2.32-3.168 2.32 3.168zm-33.632-33.568c.656.96 1.984 1.76 3.792 1.76 2.352 0 3.776-1.296 3.776-3.072 0-1.712-1.488-2.544-2.464-2.624 1.008-.176 2.304-.944 2.304-2.48 0-1.808-1.568-2.848-3.616-2.848-1.648 0-2.88.72-3.648 1.648l.736.832c.784-.848 1.648-1.296 2.816-1.296 1.296 0 2.384.64 2.384 1.824 0 1.232-1.136 1.76-2.48 1.76-.432 0-.928 0-1.104-.016v1.216c.16-.016.656-.016 1.104-.016 1.568 0 2.656.56 2.656 1.888 0 1.232-.944 2-2.496 2-1.264 0-2.352-.576-2.976-1.408l-.784.832zm9.264-3.76c0-2.608 1.152-5.504 4.08-5.504 2.912 0 4.08 2.896 4.08 5.504 0 2.592-1.168 5.52-4.08 5.52-2.928 0-4.08-2.928-4.08-5.52zm6.8 0c0-2.128-.688-4.32-2.72-4.32s-2.72 2.192-2.72 4.32.688 4.336 2.72 4.336 2.72-2.208 2.72-4.336zm4.576 8.272h-1.2V39.272h1.2v1.152a3.23 3.23 0 012.608-1.344c2.032 0 3.44 1.536 3.44 4.048 0 2.496-1.408 4.064-3.44 4.064-1.056 0-1.984-.496-2.608-1.36v4.112zm4.784-6.816c0-1.712-.928-2.976-2.48-2.976-.944 0-1.888.56-2.304 1.232v3.488c.416.672 1.36 1.248 2.304 1.248 1.552 0 2.48-1.28 2.48-2.992zM178.264 47h1.392l-2.976-3.968 2.8-3.76h-1.392l-2.144 2.944-2.144-2.944h-1.392l2.8 3.76-2.96 3.968h1.376l2.32-3.168 2.32 3.168z" fill="#C8102E" opacity=".7"/></g></svg>

<?xml version="1.0" encoding="UTF-8"?>
<svg width="180px" height="111px" viewBox="0 0 180 111" version="1.1" xmlns="http://www.w3.org/2000/svg" xmlns:xlink="http://www.w3.org/1999/xlink">
    <!-- Generator: Sketch 45.1 (43504) - http://www.bohemiancoding.com/sketch -->
    <title>Group 15</title>
    <desc>Created with Sketch.</desc>
    <defs></defs>
    <g id="Page-1" stroke="none" stroke-width="1" fill="none" fill-rule="evenodd">
        <g id="7-12-4" transform="translate(-1109.000000, -3533.000000)">
            <g id="Group-15" transform="translate(1109.000000, 3533.000000)">
                <g id="Group">
                    <path d="M2.404,107 L2.404,94.994 L7.75,94.994 C9.838,94.994 11.116,96.254 11.116,98.054 C11.116,99.566 10.108,100.574 9.01,100.808 C10.288,101.006 11.35,102.32 11.35,103.76 C11.35,105.686 10.072,107 7.876,107 L2.404,107 Z M3.898,100.196 L7.498,100.196 C8.848,100.196 9.568,99.368 9.568,98.27 C9.568,97.19 8.848,96.326 7.498,96.326 L3.898,96.326 L3.898,100.196 Z M3.898,105.668 L7.57,105.668 C8.974,105.668 9.802,104.876 9.802,103.598 C9.802,102.5 9.046,101.528 7.57,101.528 L3.898,101.528 L3.898,105.668 Z M17.47,107.216 C14.824,107.216 13.168,105.164 13.168,102.644 C13.168,100.124 14.824,98.09 17.47,98.09 C20.116,98.09 21.772,100.124 21.772,102.644 C21.772,105.164 20.116,107.216 17.47,107.216 Z M17.47,106.01 C19.324,106.01 20.35,104.426 20.35,102.644 C20.35,100.88 19.324,99.296 17.47,99.296 C15.616,99.296 14.572,100.88 14.572,102.644 C14.572,104.426 15.616,106.01 17.47,106.01 Z M30.268,107 L30.268,105.704 C29.62,106.586 28.558,107.216 27.334,107.216 C25.066,107.216 23.464,105.488 23.464,102.662 C23.464,99.89 25.048,98.09 27.334,98.09 C28.504,98.09 29.566,98.666 30.268,99.62 L30.268,94.994 L31.618,94.994 L31.618,107 L30.268,107 Z M30.268,104.642 L30.268,100.7 C29.782,99.944 28.738,99.296 27.658,99.296 C25.912,99.296 24.868,100.736 24.868,102.662 C24.868,104.588 25.912,106.01 27.658,106.01 C28.738,106.01 29.782,105.398 30.268,104.642 Z M34.048,109.178 L33.832,110.402 C34.084,110.474 34.534,110.528 34.822,110.528 C35.974,110.51 36.856,110.024 37.378,108.764 L41.734,98.306 L40.258,98.306 L37.378,105.434 L34.48,98.306 L33.022,98.306 L36.658,107.09 L36.082,108.404 C35.776,109.124 35.38,109.322 34.786,109.322 C34.57,109.322 34.246,109.268 34.048,109.178 Z M50.806,107 L52.3,107 L52.3,96.326 L56.116,96.326 L56.116,94.994 L47.008,94.994 L47.008,96.326 L50.806,96.326 L50.806,107 Z M57.538,102.644 C57.538,100.124 59.338,98.09 61.822,98.09 C64.45,98.09 65.998,100.142 65.998,102.752 L65.998,103.094 L58.96,103.094 C59.068,104.732 60.22,106.1 62.092,106.1 C63.082,106.1 64.09,105.704 64.774,105.002 L65.422,105.884 C64.558,106.748 63.388,107.216 61.966,107.216 C59.392,107.216 57.538,105.362 57.538,102.644 Z M61.804,99.206 C59.95,99.206 59.032,100.772 58.96,102.104 L64.666,102.104 C64.648,100.808 63.784,99.206 61.804,99.206 Z M73.81,107 L75.376,107 L72.028,102.536 L75.178,98.306 L73.612,98.306 L71.2,101.618 L68.788,98.306 L67.222,98.306 L70.372,102.536 L67.042,107 L68.59,107 L71.2,103.436 L73.81,107 Z M79.12,107.216 C79.912,107.216 80.398,106.982 80.74,106.658 L80.344,105.65 C80.164,105.848 79.804,106.01 79.426,106.01 C78.832,106.01 78.544,105.542 78.544,104.894 L78.544,99.494 L80.308,99.494 L80.308,98.306 L78.544,98.306 L78.544,95.93 L77.194,95.93 L77.194,98.306 L75.754,98.306 L75.754,99.494 L77.194,99.494 L77.194,105.182 C77.194,106.478 77.842,107.216 79.12,107.216 Z" id="Body-Text-Copy-2" fill="#071D49"></path>
                    <path d="M1.416,3.064 L8.232,3.064 L8.232,23 L10.664,23 L10.664,3.064 L17.416,3.064 L17.416,0.856 L1.416,0.856 L1.416,3.064 Z M20.136,23 L22.536,23 L22.536,7 L20.136,7 L20.136,23 Z M20.136,3.384 L22.536,3.384 L22.536,0.6 L20.136,0.6 L20.136,3.384 Z M35.432,9.08 L35.432,7 L30.344,7 L30.344,2.104 L27.976,2.104 L27.976,7 L25.704,7 L25.704,9.08 L27.976,9.08 L27.976,17.496 C27.976,22.104 29.096,23.352 32.392,23.352 C33.512,23.352 35.656,23 35.656,23 L35.496,21.016 C35.496,21.016 33.544,21.208 32.648,21.208 C30.568,21.208 30.344,20.216 30.344,16.728 L30.344,9.08 L35.432,9.08 Z M38.568,23 L40.968,23 L40.968,0.024 L38.568,0.024 L38.568,23 Z M51.688,21.208 C54.088,21.208 57.576,20.92 57.576,20.92 L57.64,22.808 C57.64,22.808 53.992,23.32 51.4,23.32 C46.632,23.32 45.064,20.536 45.064,15.096 C45.064,9.016 47.688,6.68 51.752,6.68 C56.008,6.68 58.184,8.92 58.184,14.168 L58.056,15.992 L47.496,15.992 C47.496,19.416 48.552,21.208 51.688,21.208 Z M47.464,14.072 L55.784,14.072 C55.784,10.104 54.568,8.696 51.752,8.696 C49.032,8.696 47.496,10.2 47.464,14.072 Z" id="Title" fill="#071D49"></path>
                    <path d="M1,57 L30,57" id="Line-Copy-2" stroke="#C8102E" stroke-width="2" stroke-linecap="square"></path>
                    <rect id="Rectangle-8-Copy-6" fill="#D0021B" opacity="0.05" x="0" y="26" width="134" height="30"></rect>
                    <rect id="Rectangle-8-Copy-5" fill="#D0021B" opacity="0.05" x="0" y="58" width="134" height="30"></rect>
                    <path d="M144.632,77.432 C145.288,78.392 146.616,79.192 148.424,79.192 C150.776,79.192 152.2,77.896 152.2,76.12 C152.2,74.408 150.712,73.576 149.736,73.496 C150.744,73.32 152.04,72.552 152.04,71.016 C152.04,69.208 150.472,68.168 148.424,68.168 C146.776,68.168 145.544,68.888 144.776,69.816 L145.512,70.648 C146.296,69.8 147.16,69.352 148.328,69.352 C149.624,69.352 150.712,69.992 150.712,71.176 C150.712,72.408 149.576,72.936 148.232,72.936 C147.8,72.936 147.304,72.936 147.128,72.92 L147.128,74.136 C147.288,74.12 147.784,74.12 148.232,74.12 C149.8,74.12 150.888,74.68 150.888,76.008 C150.888,77.24 149.944,78.008 148.392,78.008 C147.128,78.008 146.04,77.432 145.416,76.6 L144.632,77.432 Z M153.896,73.672 C153.896,71.064 155.048,68.168 157.976,68.168 C160.888,68.168 162.056,71.064 162.056,73.672 C162.056,76.264 160.888,79.192 157.976,79.192 C155.048,79.192 153.896,76.264 153.896,73.672 Z M160.696,73.672 C160.696,71.544 160.008,69.352 157.976,69.352 C155.944,69.352 155.256,71.544 155.256,73.672 C155.256,75.8 155.944,78.008 157.976,78.008 C160.008,78.008 160.696,75.8 160.696,73.672 Z M165.272,81.944 L164.072,81.944 L164.072,71.272 L165.272,71.272 L165.272,72.424 C165.832,71.64 166.792,71.08 167.88,71.08 C169.912,71.08 171.32,72.616 171.32,75.128 C171.32,77.624 169.912,79.192 167.88,79.192 C166.824,79.192 165.896,78.696 165.272,77.832 L165.272,81.944 Z M170.056,75.128 C170.056,73.416 169.128,72.152 167.576,72.152 C166.632,72.152 165.688,72.712 165.272,73.384 L165.272,76.872 C165.688,77.544 166.632,78.12 167.576,78.12 C169.128,78.12 170.056,76.84 170.056,75.128 Z M178.264,79 L179.656,79 L176.68,75.032 L179.48,71.272 L178.088,71.272 L175.944,74.216 L173.8,71.272 L172.408,71.272 L175.208,75.032 L172.248,79 L173.624,79 L175.944,75.832 L178.264,79 Z" id="30px" fill="#C8102E" opacity="0.7"></path>
                    <path d="M144.632,45.432 C145.288,46.392 146.616,47.192 148.424,47.192 C150.776,47.192 152.2,45.896 152.2,44.12 C152.2,42.408 150.712,41.576 149.736,41.496 C150.744,41.32 152.04,40.552 152.04,39.016 C152.04,37.208 150.472,36.168 148.424,36.168 C146.776,36.168 145.544,36.888 144.776,37.816 L145.512,38.648 C146.296,37.8 147.16,37.352 148.328,37.352 C149.624,37.352 150.712,37.992 150.712,39.176 C150.712,40.408 149.576,40.936 148.232,40.936 C147.8,40.936 147.304,40.936 147.128,40.92 L147.128,42.136 C147.288,42.12 147.784,42.12 148.232,42.12 C149.8,42.12 150.888,42.68 150.888,44.008 C150.888,45.24 149.944,46.008 148.392,46.008 C147.128,46.008 146.04,45.432 145.416,44.6 L144.632,45.432 Z M153.896,41.672 C153.896,39.064 155.048,36.168 157.976,36.168 C160.888,36.168 162.056,39.064 162.056,41.672 C162.056,44.264 160.888,47.192 157.976,47.192 C155.048,47.192 153.896,44.264 153.896,41.672 Z M160.696,41.672 C160.696,39.544 160.008,37.352 157.976,37.352 C155.944,37.352 155.256,39.544 155.256,41.672 C155.256,43.8 155.944,46.008 157.976,46.008 C160.008,46.008 160.696,43.8 160.696,41.672 Z M165.272,49.944 L164.072,49.944 L164.072,39.272 L165.272,39.272 L165.272,40.424 C165.832,39.64 166.792,39.08 167.88,39.08 C169.912,39.08 171.32,40.616 171.32,43.128 C171.32,45.624 169.912,47.192 167.88,47.192 C166.824,47.192 165.896,46.696 165.272,45.832 L165.272,49.944 Z M170.056,43.128 C170.056,41.416 169.128,40.152 167.576,40.152 C166.632,40.152 165.688,40.712 165.272,41.384 L165.272,44.872 C165.688,45.544 166.632,46.12 167.576,46.12 C169.128,46.12 170.056,44.84 170.056,43.128 Z M178.264,47 L179.656,47 L176.68,43.032 L179.48,39.272 L178.088,39.272 L175.944,42.216 L173.8,39.272 L172.408,39.272 L175.208,43.032 L172.248,47 L173.624,47 L175.944,43.832 L178.264,47 Z" id="30px" fill="#C8102E" opacity="0.7"></path>
                </g>
            </g>
        </g>
    </g>
</svg>
